X:340
T: Bu laodong de gu niang
N: C1225
O: China,Zhejiang, Wenzhou
S: MM,]
N: Noten kopiert.
N: Vereinzelt Glissandi. Grundtonangabe fehlt.
R: Xiaodiao]
M: 2/4
L: 1/16
K: A
f2b2a2b2 | a2b2a2f2b4 | a3ff4 |
f2b2a2b2 | a3ff4 | e2eef4 |
b2faf2f2 | f2fff2f2 | f2f2b4 | a3ff4 |
f2aba2b2 | a2f2e2e2 | f4e2c2

@@@ Tune index: 6341
